flaticon/religion/cross.svg

<svg xmlns="http://www.w3.org/2000/svg" width="32" height="32" viewBox="0 0 24 24">
    <path d="M6.207031 4.550781C6.207031 3.640625 5.464844 2.898438 4.550781 2.898438 3.640625 2.898438 2.898438 3.640625 2.898438 4.550781 2.898438 5.464844 3.640625 6.207031 4.550781 6.207031 5.464844 6.207031 6.207031 5.464844 6.207031 4.550781zM3.722656 4.550781C3.722656 4.09375 4.09375 3.722656 4.550781 3.722656 5.007812 3.722656 5.378906 4.09375 5.378906 4.550781 5.378906 5.007812 5.007812 5.378906 4.550781 5.378906 4.09375 5.378906 3.722656 5.007812 3.722656 4.550781zM7.863281 8.691406C8.773438 8.691406 9.515625 7.949219 9.515625 7.035156 9.515625 6.121094 8.773438 5.378906 7.863281 5.378906 6.949219 5.378906 6.207031 6.121094 6.207031 7.035156 6.207031 7.949219 6.949219 8.691406 7.863281 8.691406zM7.863281 6.207031C8.320312 6.207031 8.691406 6.578125 8.691406 7.035156 8.691406 7.492188 8.320312 7.863281 7.863281 7.863281 7.40625 7.863281 7.035156 7.492188 7.035156 7.035156 7.035156 6.578125 7.40625 6.207031 7.863281 6.207031zM3.722656 1.65625C3.722656.742188 2.980469 0 2.070312 0 1.15625 0 .414062.742188.414062 1.65625.414062 2.566406 1.15625 3.308594 2.070312 3.308594 2.980469 3.308594 3.722656 2.566406 3.722656 1.65625zM2.070312 2.484375C1.613281 2.484375 1.242188 2.113281 1.242188 1.65625 1.242188 1.199219 1.613281.828125 2.070312.828125 2.523438.828125 2.898438 1.199219 2.898438 1.65625 2.898438 2.113281 2.523438 2.484375 2.070312 2.484375zM19.449219 2.898438C18.535156 2.898438 17.792969 3.640625 17.792969 4.550781 17.792969 5.464844 18.535156 6.207031 19.449219 6.207031 20.359375 6.207031 21.101562 5.464844 21.101562 4.550781 21.101562 3.640625 20.359375 2.898438 19.449219 2.898438zM19.449219 5.378906C18.992188 5.378906 18.621094 5.007812 18.621094 4.550781 18.621094 4.09375 18.992188 3.722656 19.449219 3.722656 19.90625 3.722656 20.277344 4.09375 20.277344 4.550781 20.277344 5.007812 19.90625 5.378906 19.449219 5.378906zM16.136719 8.691406C17.050781 8.691406 17.792969 7.949219 17.792969 7.035156 17.792969 6.121094 17.050781 5.378906 16.136719 5.378906 15.226562 5.378906 14.484375 6.121094 14.484375 7.035156 14.484375 7.949219 15.226562 8.691406 16.136719 8.691406zM16.136719 6.207031C16.59375 6.207031 16.964844 6.578125 16.964844 7.035156 16.964844 7.492188 16.59375 7.863281 16.136719 7.863281 15.679688 7.863281 15.308594 7.492188 15.308594 7.035156 15.308594 6.578125 15.679688 6.207031 16.136719 6.207031zM21.929688 0C21.019531 0 20.277344.742188 20.277344 1.65625 20.277344 2.566406 21.019531 3.308594 21.929688 3.308594 22.84375 3.308594 23.585938 2.566406 23.585938 1.65625 23.585938.742188 22.84375 0 21.929688 0zM21.929688 2.484375C21.476562 2.484375 21.101562 2.113281 21.101562 1.65625 21.101562 1.199219 21.476562.828125 21.929688.828125 22.386719.828125 22.757812 1.199219 22.757812 1.65625 22.757812 2.113281 22.386719 2.484375 21.929688 2.484375zM21.929688 2.484375"/>
    <path d="M 17.875 12.308594 C 17.695312 11.65625 17.089844 11.171875 16.378906 11.171875 C 15.523438 11.171875 14.828125 11.867188 14.828125 12.722656 C 14.828125 12.757812 14.828125 12.792969 14.832031 12.828125 L 13.242188 12.828125 L 13.242188 10.828125 C 14.097656 10.828125 14.792969 10.132812 14.792969 9.277344 C 14.792969 8.5625 14.308594 7.960938 13.65625 7.78125 C 13.65625 7.773438 13.65625 7.765625 13.65625 7.757812 C 13.65625 6.902344 12.960938 6.207031 12.101562 6.207031 C 11.246094 6.207031 10.550781 6.902344 10.550781 7.757812 C 10.550781 7.765625 10.550781 7.773438 10.550781 7.78125 C 9.894531 7.960938 9.414062 8.5625 9.414062 9.277344 C 9.414062 10.0625 10 10.710938 10.757812 10.8125 L 10.757812 12.828125 L 8.753906 12.828125 C 8.757812 12.792969 8.757812 12.757812 8.757812 12.722656 C 8.757812 11.867188 8.0625 11.171875 7.207031 11.171875 C 6.496094 11.171875 5.894531 11.65625 5.710938 12.308594 C 5.703125 12.308594 5.695312 12.308594 5.691406 12.308594 C 4.832031 12.308594 4.136719 13.007812 4.136719 13.863281 C 4.136719 14.726562 4.851562 15.445312 5.710938 15.414062 C 5.890625 16.070312 6.496094 16.550781 7.207031 16.550781 C 7.957031 16.550781 8.582031 16.015625 8.726562 15.308594 L 10.757812 15.308594 L 10.757812 19.394531 C 10 19.496094 9.414062 20.144531 9.414062 20.929688 C 9.414062 21.644531 9.898438 22.246094 10.550781 22.425781 C 10.550781 22.433594 10.550781 22.441406 10.550781 22.449219 C 10.550781 23.304688 11.246094 24 12.101562 24 C 12.960938 24 13.65625 23.304688 13.65625 22.449219 C 13.65625 22.441406 13.65625 22.433594 13.65625 22.425781 C 14.3125 22.246094 14.792969 21.644531 14.792969 20.929688 C 14.792969 20.074219 14.097656 19.378906 13.242188 19.378906 L 13.242188 15.308594 L 14.859375 15.308594 C 15.003906 16.015625 15.628906 16.550781 16.378906 16.550781 C 17.09375 16.550781 17.695312 16.070312 17.875 15.414062 C 17.882812 15.414062 17.890625 15.414062 17.898438 15.414062 C 18.753906 15.414062 19.449219 14.71875 19.449219 13.863281 C 19.449219 13 18.730469 12.289062 17.875 12.308594 Z M 17.898438 14.585938 C 17.820312 14.585938 17.738281 14.570312 17.652344 14.539062 C 17.519531 14.492188 17.375 14.511719 17.261719 14.597656 C 17.152344 14.679688 17.089844 14.8125 17.097656 14.953125 C 17.097656 14.972656 17.101562 14.996094 17.101562 15 C 17.101562 15.398438 16.777344 15.722656 16.378906 15.722656 C 15.980469 15.722656 15.65625 15.398438 15.65625 14.988281 C 15.65625 14.980469 15.664062 14.941406 15.664062 14.933594 C 15.675781 14.820312 15.636719 14.703125 15.558594 14.617188 C 15.480469 14.53125 15.367188 14.484375 15.25 14.484375 L 12.828125 14.484375 C 12.597656 14.484375 12.414062 14.667969 12.414062 14.898438 L 12.414062 19.875 C 12.414062 20.011719 12.480469 20.136719 12.59375 20.214844 C 12.707031 20.292969 12.851562 20.308594 12.980469 20.257812 C 13.46875 20.066406 13.964844 20.445312 13.964844 20.929688 C 13.964844 21.332031 13.640625 21.65625 13.257812 21.65625 C 13.246094 21.652344 13.207031 21.648438 13.195312 21.648438 C 13.058594 21.636719 12.921875 21.703125 12.839844 21.8125 C 12.753906 21.925781 12.730469 22.070312 12.78125 22.203125 C 12.8125 22.289062 12.828125 22.371094 12.828125 22.449219 C 12.828125 22.847656 12.503906 23.171875 12.101562 23.171875 C 11.703125 23.171875 11.378906 22.847656 11.378906 22.449219 C 11.378906 22.371094 11.394531 22.289062 11.425781 22.203125 C 11.472656 22.070312 11.453125 21.925781 11.367188 21.8125 C 11.289062 21.707031 11.167969 21.648438 11.039062 21.648438 C 11.027344 21.648438 11.019531 21.648438 11.011719 21.648438 C 11 21.648438 10.976562 21.652344 10.964844 21.65625 C 10.566406 21.65625 10.242188 21.332031 10.242188 20.929688 C 10.242188 20.53125 10.566406 20.207031 10.964844 20.207031 C 11.011719 20.207031 11.054688 20.214844 11.097656 20.222656 C 11.21875 20.242188 11.34375 20.210938 11.4375 20.132812 C 11.53125 20.054688 11.585938 19.9375 11.585938 19.8125 L 11.585938 14.898438 C 11.585938 14.667969 11.402344 14.484375 11.171875 14.484375 L 8.335938 14.484375 C 8.21875 14.484375 8.109375 14.53125 8.03125 14.617188 C 7.953125 14.703125 7.914062 14.816406 7.921875 14.933594 C 7.921875 14.9375 7.929688 14.992188 7.929688 15 C 7.929688 15.398438 7.605469 15.722656 7.207031 15.722656 C 6.808594 15.722656 6.484375 15.398438 6.484375 15.015625 C 6.484375 15.003906 6.488281 14.964844 6.492188 14.953125 C 6.5 14.8125 6.4375 14.679688 6.324219 14.597656 C 6.210938 14.511719 6.066406 14.492188 5.9375 14.539062 C 5.847656 14.570312 5.769531 14.585938 5.691406 14.585938 C 5.292969 14.585938 4.964844 14.261719 4.964844 13.863281 C 4.964844 13.464844 5.292969 13.136719 5.691406 13.136719 C 5.769531 13.136719 5.847656 13.152344 5.9375 13.183594 C 6.066406 13.234375 6.214844 13.210938 6.324219 13.128906 C 6.4375 13.042969 6.5 12.910156 6.488281 12.773438 C 6.488281 12.75 6.484375 12.730469 6.484375 12.722656 C 6.484375 12.324219 6.808594 12 7.207031 12 C 7.605469 12 7.929688 12.324219 7.929688 12.722656 C 7.929688 12.835938 7.902344 12.945312 7.847656 13.050781 C 7.78125 13.179688 7.789062 13.335938 7.863281 13.457031 C 7.9375 13.578125 8.070312 13.65625 8.214844 13.65625 L 11.171875 13.65625 C 11.402344 13.65625 11.585938 13.46875 11.585938 13.242188 L 11.585938 10.394531 C 11.585938 10.269531 11.53125 10.152344 11.4375 10.074219 C 11.34375 9.996094 11.21875 9.960938 11.097656 9.984375 C 11.054688 9.992188 11.011719 10 10.964844 10 C 10.566406 10 10.242188 9.675781 10.242188 9.277344 C 10.242188 8.875 10.566406 8.550781 10.949219 8.550781 C 10.960938 8.554688 11 8.558594 11.011719 8.558594 C 11.15625 8.566406 11.285156 8.503906 11.371094 8.390625 C 11.453125 8.28125 11.472656 8.132812 11.425781 8.003906 C 11.394531 7.917969 11.378906 7.835938 11.378906 7.757812 C 11.378906 7.359375 11.703125 7.035156 12.101562 7.035156 C 12.503906 7.035156 12.828125 7.359375 12.828125 7.757812 C 12.828125 7.835938 12.8125 7.917969 12.78125 8.003906 C 12.734375 8.132812 12.753906 8.28125 12.835938 8.390625 C 12.921875 8.503906 13.050781 8.566406 13.195312 8.558594 C 13.214844 8.558594 13.238281 8.554688 13.242188 8.550781 C 13.640625 8.550781 13.964844 8.875 13.964844 9.277344 C 13.964844 9.761719 13.46875 10.140625 12.980469 9.949219 C 12.851562 9.898438 12.707031 9.914062 12.59375 9.992188 C 12.480469 10.070312 12.414062 10.195312 12.414062 10.332031 L 12.414062 13.242188 C 12.414062 13.46875 12.597656 13.65625 12.828125 13.65625 L 15.371094 13.65625 C 15.515625 13.65625 15.648438 13.578125 15.722656 13.457031 C 15.800781 13.335938 15.804688 13.179688 15.738281 13.050781 C 15.683594 12.945312 15.65625 12.832031 15.65625 12.722656 C 15.65625 12.324219 15.980469 12 16.378906 12 C 16.777344 12 17.105469 12.324219 17.105469 12.707031 C 17.101562 12.71875 17.097656 12.761719 17.097656 12.773438 C 17.089844 12.910156 17.152344 13.042969 17.261719 13.128906 C 17.375 13.210938 17.519531 13.234375 17.648438 13.183594 C 17.738281 13.152344 17.820312 13.136719 17.894531 13.136719 C 18.296875 13.136719 18.621094 13.460938 18.621094 13.863281 C 18.621094 14.261719 18.296875 14.585938 17.898438 14.585938 Z M 17.898438 14.585938"/>
</svg>

<svg xmlns="http://www.w3.org/2000/svg" width="32" height="32" viewBox="0 0 24 24">
    <path d="M6.207 4.55c0-.91-.742-1.652-1.656-1.652a1.655 1.655 0 0 0 0 3.309c.914 0 1.656-.742 1.656-1.656zm-2.484 0a.829.829 0 1 1 1.657.002.829.829 0 0 1-1.657-.001zm0 0M7.863 8.691a1.656 1.656 0 0 0 0-3.312 1.657 1.657 0 0 0 0 3.312zm0-2.484a.829.829 0 1 1 0 1.657.829.829 0 0 1 0-1.657zm0 0M3.723 1.656C3.723.742 2.98 0 2.07 0 1.156 0 .414.742.414 1.656c0 .91.742 1.653 1.656 1.653.91 0 1.653-.743 1.653-1.653zm-1.653.828A.829.829 0 1 1 2.071.827a.829.829 0 0 1 0 1.657zm0 0M19.45 2.898c-.915 0-1.657.743-1.657 1.653 0 .914.742 1.656 1.656 1.656.91 0 1.653-.742 1.653-1.656 0-.91-.743-1.653-1.653-1.653zm0 2.48a.829.829 0 1 1 0-1.656.829.829 0 0 1 0 1.657zm0 0M16.137 8.691a1.657 1.657 0 0 0 0-3.312 1.656 1.656 0 0 0 0 3.312zm0-2.484a.829.829 0 1 1-.001 1.657.829.829 0 0 1 0-1.657zm0 0M21.93 0c-.91 0-1.653.742-1.653 1.656a1.655 1.655 0 0 0 3.309 0C23.586.742 22.844 0 21.93 0zm0 2.484a.831.831 0 0 1-.828-.828.829.829 0 1 1 .828.828zm0 0M17.875 12.309a1.552 1.552 0 1 0-3.043.52h-1.59v-2a1.552 1.552 0 0 0 .414-3.048v-.023a1.553 1.553 0 0 0-3.105 0v.023a1.55 1.55 0 0 0 .207 3.031v2.016H8.754c.004-.035.004-.07.004-.105 0-.856-.695-1.551-1.551-1.551a1.56 1.56 0 0 0-1.496 1.137h-.02c-.859 0-1.554.699-1.554 1.554 0 .864.715 1.582 1.574 1.551a1.553 1.553 0 0 0 3.016-.105h2.03v4.086a1.55 1.55 0 0 0-.206 3.03v.024a1.552 1.552 0 0 0 3.105 0v-.023a1.552 1.552 0 0 0-.414-3.047v-4.07h1.617c.145.707.77 1.242 1.52 1.242a1.55 1.55 0 0 0 1.496-1.137h.023a1.552 1.552 0 1 0-.023-3.105zm.023 2.277a.72.72 0 0 1-.246-.047.413.413 0 0 0-.554.414c0 .02.004.043.004.047a.724.724 0 0 1-.723.723.726.726 0 0 1-.723-.735c0-.008.008-.047.008-.054a.413.413 0 0 0-.105-.317.416.416 0 0 0-.309-.133h-2.422a.412.412 0 0 0-.414.414v4.977a.413.413 0 0 0 .566.383.724.724 0 1 1 .278 1.398.41.41 0 0 0-.418.156.402.402 0 0 0-.059.391.72.72 0 0 1 .047.246.724.724 0 0 1-1.45 0 .72.72 0 0 1 .048-.246.413.413 0 0 0-.387-.555h-.027a.196.196 0 0 0-.047.008.724.724 0 0 1 0-1.449c.047 0 .09.008.133.016a.425.425 0 0 0 .34-.09.416.416 0 0 0 .148-.32v-4.915a.412.412 0 0 0-.414-.414H8.336a.408.408 0 0 0-.305.133.426.426 0 0 0-.11.317c0 .004.009.058.009.066a.724.724 0 0 1-1.446.016c0-.012.004-.051.008-.063a.408.408 0 0 0-.168-.355.407.407 0 0 0-.386-.059.737.737 0 0 1-.247.047.727.727 0 0 1-.726-.723.73.73 0 0 1 .726-.726c.079 0 .157.015.247.047.128.05.277.027.386-.055a.404.404 0 0 0 .164-.356c0-.023-.004-.043-.004-.05a.724.724 0 0 1 1.446 0 .704.704 0 0 1-.082.328.418.418 0 0 0 .367.605h2.957c.23 0 .414-.187.414-.414v-2.847a.416.416 0 0 0-.488-.41.727.727 0 0 1-.133.015.724.724 0 0 1-.723-.723c0-.402.324-.726.707-.726a.415.415 0 0 0 .477-.547.72.72 0 0 1-.047-.246.724.724 0 1 1 1.402.246.414.414 0 0 0 .414.555c.02 0 .043-.004.047-.008a.724.724 0 1 1-.262 1.398.413.413 0 0 0-.566.383v2.91c0 .227.184.414.414.414h2.543a.415.415 0 0 0 .367-.605.716.716 0 0 1 .64-1.051c.4 0 .727.324.727.707a.424.424 0 0 0 .156.422.405.405 0 0 0 .387.055.755.755 0 0 1 .247-.047.725.725 0 0 1 .003 1.449zm0 0"/>
</svg>
